build/images/ico/wiki.svg

<?xml version="1.0" encoding="UTF-8"?>
<svg width="24px" height="24px" viewBox="0 0 24 24" version="1.1" xmlns="http://www.w3.org/2000/svg" xmlns:xlink="http://www.w3.org/1999/xlink">
    <title>Wiki@1x</title>
    <g id="1.-Design" stroke="none" stroke-width="1" fill="none" fill-rule="evenodd">
        <g id="HP" transform="translate(-1588.000000, -16.000000)" fill="#343A40" fill-rule="nonzero">
            <g id="Wiki" transform="translate(1588.000000, 16.000000)">
                <path d="M12,0 C5.37280818,0 0,5.37280818 0,12 C0,18.6271918 5.37280818,24 12,24 C18.6271918,24 24,18.6271918 24,12 C24,5.37280818 18.6271918,0 12,0 Z M19.0750281,9.2078977 C18.3927161,10.7497903 16.3057596,15.6335141 14.9131458,18.8167366 C14.9111816,18.8182097 14.5482967,18.816 14.5473146,18.815509 L12.3510997,13.6425575 C11.4807161,15.349688 10.5162967,17.1243376 9.69158056,18.8130537 C9.68667008,18.8216471 9.29260358,18.8169821 9.29211253,18.8115806 C8.03134527,15.8687263 6.72417391,12.9452685 5.45677749,10.004624 C5.16337596,9.2857289 4.13413811,8.12955499 3.4297289,8.13618414 C3.4297289,8.05270588 3.42580051,7.86635294 3.42481841,7.75365729 L7.76617903,7.75316624 L7.76274169,8.12906394 C7.25303325,8.15263427 6.37209207,8.47795396 6.60042967,9.04069565 C7.21227621,10.3618619 9.37878261,15.4800614 9.96435806,16.779376 C10.3729105,15.9797033 11.5138619,13.8480614 11.9837954,12.9469872 C11.615509,12.1912634 10.398445,9.36969821 10.0335959,8.6591509 C9.75836317,8.19584655 9.06770332,8.13913043 8.5358977,8.13102813 C8.5358977,8.0124399 8.54203581,7.92110486 8.53982609,7.75832225 L12.3560102,7.77010742 L12.3560102,8.11678772 C11.8394271,8.13102813 11.3503427,8.32327366 11.5720512,8.81726854 C12.0854425,9.88284399 12.3852276,10.6415141 12.8563887,11.6270486 C13.0068951,11.338312 13.7783325,9.7556624 14.1461279,8.92038875 C14.3683274,8.36501279 14.0363785,8.15705371 13.1070691,8.13201023 C13.1193453,8.04067519 13.111243,7.85726854 13.1193453,7.76986189 L16.4152634,7.77305371 L16.4167366,8.11703325 C15.8110281,8.14060358 15.1839591,8.46322251 14.8566752,8.96409207 L13.2696061,12.2555908 C13.4436829,12.6909054 14.9696164,16.0808593 15.1301893,16.456757 L18.411376,8.88306905 C18.1778824,8.26999488 17.4332072,8.13299233 17.1420153,8.12636317 C17.1439795,8.0286445 17.1444706,7.87961125 17.1449616,7.75513043 L20.5702711,7.76495141 L20.5751816,7.78213811 L20.5695345,8.12439898 C19.8179847,8.14723274 19.3532072,8.54915601 19.0750281,9.2078977 Z" id="Shape"></path>
            </g>
        </g>
    </g>
</svg>

<svg width="24" height="24" viewBox="0 0 24 24" xmlns="http://www.w3.org/2000/svg"><path d="M12 0C5.373 0 0 5.373 0 12s5.373 12 12 12 12-5.373 12-12S18.627 0 12 0zm7.075 9.208c-.682 1.542-2.77 6.426-4.162 9.609-.002.001-.365-.001-.366-.001l-2.196-5.173c-.87 1.707-1.835 3.481-2.66 5.17a3.799 3.799 0 01-.399-.001c-1.26-2.943-2.568-5.867-3.835-8.807-.294-.72-1.323-1.875-2.027-1.869 0-.083-.004-.27-.005-.382h4.341l-.003.375c-.51.024-1.39.349-1.163.912.612 1.32 2.779 6.44 3.364 7.738.409-.8 1.55-2.93 2.02-3.832-.368-.756-1.586-3.577-1.95-4.288-.276-.463-.966-.52-1.498-.528 0-.119.006-.21.004-.373l3.816.012v.347c-.517.014-1.006.206-.784.7.513 1.066.813 1.825 1.284 2.81.15-.289.922-1.871 1.29-2.707.222-.555-.11-.763-1.039-.788.012-.091.004-.275.012-.362l3.296.003.002.344c-.606.024-1.233.346-1.56.847l-1.587 3.292c.174.435 1.7 3.825 1.86 4.2l3.281-7.573c-.233-.613-.978-.75-1.269-.757.002-.097.002-.246.003-.37l3.425.009.005.017-.005.342c-.752.023-1.217.425-1.495 1.084z" fill="#343A40" fill-rule="nonzero"/></svg>
